x-pack/solutions/security/packages/kbn-cloud-security-posture/graph/src/assets/icons/aws_ec2.svg

<svg width="24" height="24" viewBox="0 0 24 24" fill="none" xmlns="http://www.w3.org/2000/svg">
<g clip-path="url(#clip0_2302_45405)">
<path d="M24 0H0V24H24V0Z" fill="url(#paint0_linear_2302_45405)"/>
<path fill-rule="evenodd" clip-rule="evenodd" d="M8.1 15.9H15.6V8.4H8.1V15.9ZM16.2 8.4H17.4V9H16.2V10.2H17.4V10.8H16.2V11.7H17.4V12.3H16.2V13.5H17.4V14.1H16.2V15.3H17.4V15.9H16.2V15.9408C16.2 16.2492 15.9492 16.5 15.6408 16.5H15.6V17.7H15V16.5H13.8V17.7H13.2V16.5H12.3V17.7H11.7V16.5H10.5V17.7H9.9V16.5H8.7V17.7H8.1V16.5H8.0592C7.7508 16.5 7.5 16.2492 7.5 15.9408V15.9H6.6V15.3H7.5V14.1H6.6V13.5H7.5V12.3H6.6V11.7H7.5V10.8H6.6V10.2H7.5V9H6.6V8.4H7.5V8.3592C7.5 8.0508 7.7508 7.8 8.0592 7.8H8.1V6.6H8.7V7.8H9.9V6.6H10.5V7.8H11.7V6.6H12.3V7.8H13.2V6.6H13.8V7.8H15V6.6H15.6V7.8H15.6408C15.9492 7.8 16.2 8.0508 16.2 8.3592V8.4ZM12.3 19.7628C12.3 19.7832 12.2832 19.8 12.2628 19.8H4.2372C4.2168 19.8 4.2 19.7832 4.2 19.7628V11.7372C4.2 11.7168 4.2168 11.7 4.2372 11.7H6V11.1H4.2372C3.8859 11.1 3.6 11.3859 3.6 11.7372V19.7628C3.6 20.1141 3.8859 20.4 4.2372 20.4H12.2628C12.6141 20.4 12.9 20.1141 12.9 19.7628V18.3H12.3V19.7628ZM20.4 4.2372V12.2628C20.4 12.6141 20.1141 12.9 19.7628 12.9H18V12.3H19.7628C19.7832 12.3 19.8 12.2832 19.8 12.2628V4.2372C19.8 4.2168 19.7832 4.2 19.7628 4.2H11.7372C11.7168 4.2 11.7 4.2168 11.7 4.2372V6H11.1V4.2372C11.1 3.8859 11.3859 3.6 11.7372 3.6H19.7628C20.1141 3.6 20.4 3.8859 20.4 4.2372Z" fill="white"/>
</g>
<defs>
<linearGradient id="paint0_linear_2302_45405" x1="0" y1="2400" x2="2400" y2="0" gradientUnits="userSpaceOnUse">
<stop stop-color="#C8511B"/>
<stop offset="1" stop-color="#FF9900"/>
</linearGradient>
<clipPath id="clip0_2302_45405">
<rect width="24" height="24" rx="4" fill="white"/>
</clipPath>
</defs>
</svg>

<svg xmlns="http://www.w3.org/2000/svg" width="24" height="24" fill="none"><g clip-path="url(#a)"><path fill="url(#b)" d="M24 0H0v24h24z"/><path fill="#fff" fill-rule="evenodd" d="M8.1 15.9h7.5V8.4H8.1zm8.1-7.5h1.2V9h-1.2v1.2h1.2v.6h-1.2v.9h1.2v.6h-1.2v1.2h1.2v.6h-1.2v1.2h1.2v.6h-1.2v.04a.56.56 0 0 1-.56.56h-.04v1.2H15v-1.2h-1.2v1.2h-.6v-1.2h-.9v1.2h-.6v-1.2h-1.2v1.2h-.6v-1.2H8.7v1.2h-.6v-1.2h-.04a.56.56 0 0 1-.56-.56v-.04h-.9v-.6h.9v-1.2h-.9v-.6h.9v-1.2h-.9v-.6h.9v-.9h-.9v-.6h.9V9h-.9v-.6h.9v-.04c0-.31.25-.56.56-.56h.04V6.6h.6v1.2h1.2V6.6h.6v1.2h1.2V6.6h.6v1.2h.9V6.6h.6v1.2H15V6.6h.6v1.2h.04c.31 0 .56.25.56.56zm-3.9 11.363c0 .02-.017.037-.037.037H4.237a.037.037 0 0 1-.037-.037v-8.026c0-.02.017-.037.037-.037H6v-.6H4.237a.64.64 0 0 0-.637.637v8.026c0 .351.286.637.637.637h8.026a.64.64 0 0 0 .637-.637V18.3h-.6zm8.1-15.526v8.026a.64.64 0 0 1-.637.637H18v-.6h1.763c.02 0 .037-.017.037-.037V4.237a.037.037 0 0 0-.037-.037h-8.026a.037.037 0 0 0-.037.037V6h-.6V4.237c0-.351.286-.637.637-.637h8.026c.351 0 .637.286.637.637" clip-rule="evenodd"/></g><defs><linearGradient id="b" x1="0" x2="2400" y1="2400" y2="0" gradientUnits="userSpaceOnUse"><stop stop-color="#C8511B"/><stop offset="1" stop-color="#F90"/></linearGradient><clipPath id="a"><rect width="24" height="24" fill="#fff" rx="4"/></clipPath></defs></svg>
